.icons/Gruvbox-Plus-Dark/apps/16/crawl.svg

<svg width="16" height="16" version="1.1" xmlns="http://www.w3.org/2000/svg">
  <defs>
    <style type="text/css" id="current-color-scheme">.ColorScheme-Text { color:#ebdbb2; } .ColorScheme-Highlight { color:#458588; }</style>
  </defs>
  <path class="ColorScheme-Text" fill="currentColor" d="m7.925 2.071c-3.721 0-6.74 0.771-6.74 1.72 0 0.227 0.172 0.443 0.485 0.641-1.047 0.992-1.67 2.235-1.67 3.585 0 1.368 0.641 2.628 1.714 3.626-0.164 0.478-0.819 2.018-0.597 2.24 0.239 0.239 2.005-0.537 2.332-0.625 0.1-0.027 0.358-0.066 0.66-0.116 1.152 0.471 2.479 0.74 3.891 0.74 1.427 0 2.766-0.275 3.926-0.755 0.34 0.057 0.636 0.102 0.746 0.131 0.326 0.088 2.092 0.864 2.331 0.625 0.239-0.238-0.533-1.995-0.624-2.328 1.017-0.984 1.621-2.21 1.621-3.538 0-1.377-0.648-2.643-1.733-3.644 0.257-0.182 0.398-0.377 0.398-0.582 0-0.949-3.02-1.72-6.74-1.72zm5.732 1.582c0 0.55-2.568 0.997-5.732 0.997s-5.731-0.447-5.731-0.997c0-0.551 2.567-0.997 5.731-0.997s5.732 0.446 5.732 0.997z"/>
</svg>

<svg xmlns="http://www.w3.org/2000/svg" style="isolation:isolate" width="16" height="16" viewBox="0 0 16 16">
 <defs>
  <style id="current-color-scheme" type="text/css">
   .ColorScheme-Text { color:#ebdbb2; } .ColorScheme-Highlight { color:#458588; }
  </style>
  <linearGradient id="arrongin" x1="0%" x2="0%" y1="0%" y2="100%">
   <stop offset="0%" style="stop-color:#d79921; stop-opacity:1"/>
   <stop offset="100%" style="stop-color:#b57614; stop-opacity:1"/>
  </linearGradient>
  <linearGradient id="aurora" x1="0%" x2="0%" y1="0%" y2="100%">
   <stop offset="0%" style="stop-color:#83a598; stop-opacity:1"/>
   <stop offset="100%" style="stop-color:#b16286; stop-opacity:1"/>
  </linearGradient>
  <linearGradient id="fitdance" x1="0%" x2="0%" y1="0%" y2="100%">
   <stop offset="0%" style="stop-color:#8ec07c; stop-opacity:1"/>
   <stop offset="100%" style="stop-color:#458588; stop-opacity:1"/>
  </linearGradient>
  <linearGradient id="oomox" x1="0%" x2="0%" y1="0%" y2="100%">
   <stop offset="0%" style="stop-color:#458588; stop-opacity:1"/>
   <stop offset="100%" style="stop-color:#928374; stop-opacity:1"/>
  </linearGradient>
  <linearGradient id="rainblue" x1="0%" x2="0%" y1="0%" y2="100%">
   <stop offset="0%" style="stop-color:#b8bb26; stop-opacity:1"/>
   <stop offset="100%" style="stop-color:#076678; stop-opacity:1"/>
  </linearGradient>
  <linearGradient id="sunrise" x1="0%" x2="0%" y1="0%" y2="100%">
   <stop offset="0%" style="stop-color: #fe8019; stop-opacity:1"/>
   <stop offset="100%" style="stop-color: #fabd2f; stop-opacity:1"/>
  </linearGradient>
  <linearGradient id="telinkrin" x1="0%" x2="0%" y1="0%" y2="100%">
   <stop offset="0%" style="stop-color: #83a598; stop-opacity:1"/>
   <stop offset="100%" style="stop-color: #83a598; stop-opacity:1"/>
  </linearGradient>
  <linearGradient id="60spsycho" x1="0%" x2="0%" y1="0%" y2="100%">
   <stop offset="0%" style="stop-color: #fb4934; stop-opacity:1"/>
   <stop offset="25%" style="stop-color: #fabd2f; stop-opacity:1"/>
   <stop offset="50%" style="stop-color: #fe8019; stop-opacity:1"/>
   <stop offset="100%" style="stop-color: #689d6a; stop-opacity:1"/>
  </linearGradient>
  <linearGradient id="90ssummer" x1="0%" x2="0%" y1="0%" y2="100%">
   <stop offset="0%" style="stop-color: #b16286; stop-opacity:1"/>
   <stop offset="20%" style="stop-color: #8ec07c; stop-opacity:1"/>
   <stop offset="50%" style="stop-color: #fabd2f; stop-opacity:1"/>
   <stop offset="100%" style="stop-color: #458588; stop-opacity:1"/>
  </linearGradient>
  <linearGradient id="cyberneon" x1="0%" x2="0%" y1="0%" y2="100%">
    <stop offset="0" style="stop-color:#83a598; stop-opacity:1"/>
    <stop offset="1" style="stop-color:#b16286; stop-opacity:1"/>
  </linearGradient>
  <clipPath id="_clipPath_i2aBkmnCVMFUjkCtM64e7Q2ytO89Y1Ch">
   <rect width="16" height="16"/>
  </clipPath>
 </defs>
 <g clip-path="url(#_clipPath_i2aBkmnCVMFUjkCtM64e7Q2ytO89Y1Ch)">
  <rect style="fill:currentColor" class="ColorScheme-Text" fill-opacity="0" width="16" height="16"/>
  <path style="fill:currentColor" class="ColorScheme-Text" fill-rule="evenodd" d="M 7.925 2.071 C 4.204 2.071 1.185 2.842 1.185 3.791 C 1.185 4.018 1.357 4.234 1.67 4.432 C 0.623 5.424 0 6.667 0 8.017 C 0 9.385 0.641 10.645 1.714 11.643 C 1.55 12.121 0.895 13.661 1.117 13.883 C 1.356 14.122 3.122 13.346 3.449 13.258 C 3.549 13.231 3.807 13.192 4.109 13.142 C 5.261 13.613 6.588 13.882 8 13.882 C 9.427 13.882 10.766 13.607 11.926 13.127 C 12.266 13.184 12.562 13.229 12.672 13.258 C 12.998 13.346 14.764 14.122 15.003 13.883 C 15.242 13.645 14.47 11.888 14.379 11.555 C 15.396 10.571 16 9.345 16 8.017 C 16 6.64 15.352 5.374 14.267 4.373 C 14.524 4.191 14.665 3.996 14.665 3.791 C 14.665 2.842 11.645 2.071 7.925 2.071 L 7.925 2.071 Z M 13.657 3.653 C 13.657 4.203 11.089 4.65 7.925 4.65 C 4.761 4.65 2.194 4.203 2.194 3.653 C 2.194 3.102 4.761 2.656 7.925 2.656 C 11.089 2.656 13.657 3.102 13.657 3.653 Z"/>
 </g>
</svg>
